X: 29495
T: Nil Se Ina La
R: waltz
M: 3/4
K: Dmajor
|:D>F|A2- A>A B>c|d4 D>F|A2- A>F G>F|F<E- E2 D>F|
A2 A>A B>c|d2- d>A D>F|A2- A>F E>F|E<D- D2:|
K: Gmaj
|:G>B|d2- d>d e>f|g4 G>B|d2- d>B c>B|B<A- A2 G>B|
d2- d>d e>f|g4 G>B|d2- d>B A>B|A<G- G2:|

